!!!OTL: Der junge Held Es wollt' ein Jungknab auf Botschaft gehn
!!!ARE: Europa, Mitteleuropa, Deutschland / France, Lothringen
!!!YOR: 3, S. 152
!!    ????
!!!SCT: Q1060E
!!!YEM: Copyright 1995, estate of Helmut Schaffrath.
**kern
*ICvox
*Ivox
!! Irregular meter.
*MX
*k[f#c#]
*D:
{4d
=1
6d
6d
6d
4.a
8b
4ccn
=2
4b
4a
2g}
!*M4/4
=3
{4g
=4
4a
8a
8a
4.dd
8ee
4dd
=5
8ccn
8b
2a}
!*M3/4
=6
{8a
8g
=7
4a
4dd
4ccn
4b
4a
=8
4ccn
4dd
2a}
!*M4/4
=9
{4ccn
=10
4b
4a
2g
4a
=11
4fn
4e
2d}
=12
{4d
=13
4d
4d
2a
4g
=14
8a
8b-
4.a
8g
4fn
=15
2e
2d}
==
!!!AGN: Tage - Lied
!! Melodievergleich zu Q0060A, anderes Lied. Verzierung im letzten Takt.
!!!ONB: ESAC (Essen Associative Code) Database: BALLADE
!!!AMT: irregular
!!!AIN: vox
!!!EED: Helmut Schaffrath
!!!EEV: 1.0
*-
